symbols/web/fact_check/materialsymbolsrounded/fact_check_wght200gradN25fill1_40px.svg

<svg xmlns="http://www.w3.org/2000/svg" height="40" width="40"><path d="M10.292 14h4.875q.291 0 .5-.188.208-.187.208-.479 0-.291-.208-.5-.209-.208-.5-.208h-4.875q-.292 0-.48.208-.187.209-.187.5 0 .292.187.479.188.188.48.188Zm0 6.667h4.875q.291 0 .5-.188.208-.187.208-.479t-.208-.5q-.209-.208-.5-.208h-4.875q-.292 0-.48.208-.187.208-.187.5 0 .292.187.479.188.188.48.188Zm0 6.666h4.875q.291 0 .5-.187.208-.188.208-.479 0-.292-.208-.5-.209-.209-.5-.209h-4.875q-.292 0-.48.209-.187.208-.187.5 0 .291.187.479.188.187.48.187Zm13.958-4.208q.208 0 .396-.083.187-.084.354-.25l5.5-5.5q.208-.25.208-.5t-.208-.459q-.208-.208-.479-.208t-.479.167l-5.292 5.333-1.875-1.875q-.208-.167-.5-.188-.292-.02-.458.146-.209.25-.209.542 0 .292.167.458l2.167 2.125q.125.125.312.209.188.083.396.083ZM7.375 33.208q-.958 0-1.646-.687-.687-.688-.687-1.646V9.125q0-.958.687-1.646.688-.687 1.646-.687h25.25q.958 0 1.646.687.687.688.687 1.646v21.75q0 .958-.687 1.646-.688.687-1.646.687Z"/></svg>

<svg xmlns="http://www.w3.org/2000/svg" height="40" width="40"><path d="M10.292 14H15.167Q15.458 14 15.667 13.812Q15.875 13.625 15.875 13.333Q15.875 13.042 15.667 12.833Q15.458 12.625 15.167 12.625H10.292Q10 12.625 9.812 12.833Q9.625 13.042 9.625 13.333Q9.625 13.625 9.812 13.812Q10 14 10.292 14ZM10.292 20.667H15.167Q15.458 20.667 15.667 20.479Q15.875 20.292 15.875 20Q15.875 19.708 15.667 19.5Q15.458 19.292 15.167 19.292H10.292Q10 19.292 9.812 19.5Q9.625 19.708 9.625 20Q9.625 20.292 9.812 20.479Q10 20.667 10.292 20.667ZM10.292 27.333H15.167Q15.458 27.333 15.667 27.146Q15.875 26.958 15.875 26.667Q15.875 26.375 15.667 26.167Q15.458 25.958 15.167 25.958H10.292Q10 25.958 9.812 26.167Q9.625 26.375 9.625 26.667Q9.625 26.958 9.812 27.146Q10 27.333 10.292 27.333ZM24.25 23.125Q24.458 23.125 24.646 23.042Q24.833 22.958 25 22.792L30.5 17.292Q30.708 17.042 30.708 16.792Q30.708 16.542 30.5 16.333Q30.292 16.125 30.021 16.125Q29.75 16.125 29.542 16.292L24.25 21.625L22.375 19.75Q22.167 19.583 21.875 19.562Q21.583 19.542 21.417 19.708Q21.208 19.958 21.208 20.25Q21.208 20.542 21.375 20.708L23.542 22.833Q23.667 22.958 23.854 23.042Q24.042 23.125 24.25 23.125ZM7.375 33.208Q6.417 33.208 5.729 32.521Q5.042 31.833 5.042 30.875V9.125Q5.042 8.167 5.729 7.479Q6.417 6.792 7.375 6.792H32.625Q33.583 6.792 34.271 7.479Q34.958 8.167 34.958 9.125V30.875Q34.958 31.833 34.271 32.521Q33.583 33.208 32.625 33.208Z"/></svg>
